X: 810
T: The Humors of Bally Castle.
C:J. O'Neill.
B:O'Neill's Music of Ireland
N:O'Neill's - 810
Z:Transcribed by Stephen Foy (shf@access.digex.net)
Z:abc 1.6
R:Jig
M:6/8
K:A
E|{B}AGA cBA|faf ecA|{B}AGA cBc|FGA BGE|\
{B}AGA cBA|faf ecA|BdB cec|ABA A2:|
||g|agf efg|aba afe|(c/f/) z f (f2 e)|(c/f/) z f (f2 g)|\
agf edc|faf ecA|BdB cec|ABA A2:|
